X: 67
T: Mai sirong
%%abc-version 2.0
%%abcx-abcm2ps-target-version 5.9.1 (29 Sep 2008)
%%abc-creator hum2abc beta
%%abcx-conversion-date 2013/10/02 07:52:29
%%abc-edited-by Helmut Schaffrath
%%humdrum-veritas 3880910415
%%humdrum-veritas-data 2032181693
%%continueall 1
%%barnumbers 0
L: 1/16
M: 2/4
K: D
f a f ef4 [I:setbarnb 1]| 
A2 A Bd4 | 
d e f a A B d2 | 
f e c BA4 | 
f a f e f a f e | 
A A A Bd4 | 
d e f a A B d2 | 
f a c BA4 |]  



